astro/public/img/icons/multi-factor-authentication.svg

<svg height="70" viewBox="0 0 70 70" width="70" xmlns="http://www.w3.org/2000/svg" xmlns:xlink="http://www.w3.org/1999/xlink"><linearGradient id="a" x1="22.191899%" x2="77.808101%" y1="0%" y2="100%"><stop offset="0" stop-color="#a4aebe"/><stop offset="1" stop-color="#2d53f5"/></linearGradient><path d="m22 0c8.0886667 0 14.6666667 6.615375 14.6666667 14.75l-.0006667 7.375h1.834c3.0311111 0 5.5 2.4804583 5.5 5.53125v25.8125c0 3.0507917-2.4688889 5.53125-5.5 5.53125h-33c-3.03111111 0-5.5-2.4804583-5.5-5.53125v-25.8125c0-3.0507917 2.46888889-5.53125 5.5-5.53125h1.833l.00033333-7.375c0-8.134625 6.57799997-14.75 14.66666667-14.75zm16.5 25.8125h-33c-1.00955556 0-1.83333333.826-1.83333333 1.84375v25.8125c0 1.01775.82377777 1.84375 1.83333333 1.84375h33c1.0095556 0 1.8333333-.826 1.8333333-1.84375v-25.8125c0-1.01775-.8237777-1.84375-1.8333333-1.84375zm-16.5 6.1458333c2.6962222 0 4.8888889 2.205125 4.8888889 4.9166667 0 2.0596113-1.2650585 3.8270457-3.0549479 4.5578698l-.0006077 5.8900469c0 1.01775-.8213333 1.84375-1.8333333 1.84375s-1.8333333-.826-1.8333333-1.84375l-.0006077-5.8900469c-1.7898894-.7308241-3.0549479-2.4982585-3.0549479-4.5578698 0-2.7115417 2.1926667-4.9166667 4.8888889-4.9166667zm0 3.6875c-.6722222 0-1.2222222.5506667-1.2222222 1.2291667s.55 1.2291667 1.2222222 1.2291667 1.2222222-.5506667 1.2222222-1.2291667-.55-1.2291667-1.2222222-1.2291667zm0-31.9583333c-6.0646667 0-11 4.963375-11 11.0625l-.001 7.375h22.001v-7.375c0-6.099125-4.9353333-11.0625-11-11.0625z" fill="url(#a)" transform="translate(13 6)"/></svg>

<svg xmlns="http://www.w3.org/2000/svg" width="70" height="70"><linearGradient id="a" x1="22.192%" x2="77.808%" y1="0%" y2="100%"><stop offset="0" stop-color="#a4aebe"/><stop offset="1" stop-color="#2d53f5"/></linearGradient><path fill="url(#a)" d="M22 0c8.089 0 14.667 6.615 14.667 14.75l-.001 7.375H38.5c3.031 0 5.5 2.48 5.5 5.531V53.47c0 3.049-2.469 5.53-5.5 5.53h-33C2.469 59 0 56.52 0 53.469V27.656c0-3.05 2.469-5.531 5.5-5.531h1.833V14.75C7.333 6.615 13.911 0 22 0zm16.5 25.813h-33a1.84 1.84 0 0 0-1.833 1.843V53.47A1.84 1.84 0 0 0 5.5 55.312h33a1.84 1.84 0 0 0 1.833-1.843V27.656a1.84 1.84 0 0 0-1.833-1.843zM22 31.957c2.696 0 4.889 2.205 4.889 4.917a4.924 4.924 0 0 1-3.055 4.558v5.89c0 1.018-.822 1.844-1.834 1.844s-1.833-.826-1.833-1.844v-5.89a4.924 4.924 0 0 1-3.056-4.558c0-2.712 2.193-4.917 4.889-4.917zm0 3.688c-.672 0-1.222.55-1.222 1.229s.55 1.23 1.222 1.23 1.222-.551 1.222-1.23-.55-1.23-1.222-1.23zm0-31.959c-6.065 0-11 4.964-11 11.063l-.001 7.375H33V14.75c0-6.1-4.935-11.063-11-11.063z" transform="translate(13 6)"/></svg>
